!!!!SEGMENT: pl-sa--159-a-iv-9--002_luna-georgius--vesperae-ex-d-laudate-pueri.krn
!!!cenid: 17xx:460
!!!COM: Luna, Georgius
!!!COM-rismid: pe41010079
!!!CDT:
!!!CNT:
!!!OTL: Vesperae ex D – Laudate pueri
!!!PDT:
!!!AGN: Sacred; Vespers
!!!SMS-siglum: PL-SA
!!!SMS-shelfmark: 159/A IV 9
!!!SMS-shelfwork: 001-002 M
!!!SMS-variant:
!!!SMS-altvar:
!!!NIFC-rismid: 1001070706
!!!URL-scan: http://bc.bdsandomierz.pl/dlibra/publication/1545/edition/1513/content
!!!ONB-nifc: UWAGA: części Vesperae: Dixit Dominus, Laudate pueri, Laetatus sum, Nisi Dominus, Lauda Jerusalem, Magnificat. UWAGA: brak partii clarino 1, clarino 2
**kern	**dynam	**kern	**dynam	**kern	**dynam	**kern	**text	**kern	**text
*part5	*part5	*part4	*part4	*part3	*part3	*part2	*part2	*part1	*part1
*	*	*group2	*	*group2	*	*group1	*	*group1	*
*staff5	*	*staff4	*	*staff3	*	*staff2	*staff2	*staff1	*staff1
*I"Fondameto	*	*I"Violino Secundo	*	*I"Violino Primo	*	*I"Tenore	*	*I"Canto	*
*I'bc	*	*I'vl II	*	*I'vl I	*	*I'T	*	*I'C	*
*clefF4	*	*clefG2	*	*clefG2	*	*clefC4	*	*clefC1	*
*k[f#c#]	*	*k[f#c#]	*	*k[f#c#]	*	*k[f#c#]	*	*k[f#c#]	*
*D:	*	*D:	*	*D:	*	*D:	*	*D:	*
*M2/4	*	*M2/4	*	*M2/4	*	*M2/4	*	*M2/4	*
!LO:TX:a:B:t=Solo	!	!	!	!	!	!	!	!LO:TX:a:B:t=Solo	!
!LO:TX:a:B:t=allo	!	!LO:TX:a:B:t=allo	!	!LO:TX:a:B:t=allo	!	!LO:TX:a:B:t=allo	!	!LO:TX:a:B:t=allo	!
!	!	!	!	!LO:TX:a:t=P:problem:brak nazwy instrumentu na karcie głosu	!	!LO:TX:a:t=P:problem:przy kluczu krzyżyki jeden nad drugim	!	!LO:TX:a:t=P:problem:przy kluczu krzyżyki jeden nad drugim, cis oktawę wyżej	!
8r	.	8r	.	8r	.	8r	.	8a\	Lau-
=1	=1	=1	=1	=1	=1	=1	=1	=1	=1
!	!	!LO:N:vis=0	!	!LO:N:vis=0	!	!LO:N:vis=0	!	!	!
8d\L	.	1r	.	1r	.	1r	.	4dd\	-da-
8A\	.	.	.	.	.	.	.	.	.
8F#\	.	.	.	.	.	.	.	4ff#\	-te
8D\J	.	.	.	.	.	.	.	.	.
=2	=2	=2	=2	=2	=2	=2	=2	=2	=2
8A\L	.	.	.	.	.	.	.	16ee\LL	Pu-
.	.	.	.	.	.	.	.	16dd\JJ	.
8B\	.	.	.	.	.	.	.	16cc#\LL	-e-
.	.	.	.	.	.	.	.	16b\JJ	.
8c#\	.	.	.	.	.	.	.	8a\	-ri
8F#\J	.	.	.	.	.	.	.	(8dd\	Do-
=3	=3	=3	=3	=3	=3	=3	=3	=3	=3
!	!	!	!	!LO:TX:a:t=P:problem:brak tego taktu	!	!	!	!	!
8C#\L	.	2r	.	2ryy	.	2r	.	8ee\L)	.
8D\	.	.	.	.	.	.	.	8ff#\J	.
8E\	.	.	.	.	.	.	.	8.gg\	.
8AA\J	.	.	.	.	.	.	.	.	.
.	.	.	.	.	.	.	.	16gg\	-mi-
=4	=4	=4	=4	=4	=4	=4	=4	=4	=4
!	!LO:DY:a	!	!	!	!	!	!	!	!
16D\LL	f	4r	.	4r	.	4r	.	4ff#\	-num
16D\	.	.	.	.	.	.	.	.	.
16F#\	.	.	.	.	.	.	.	.	.
16A\JJ	.	.	.	.	.	.	.	.	.
8d\L	.	8r	.	8r	.	8r	.	8r	.
8D\J	.	8a/	.	8ff#\	.	8A\	Lau-	8ff#\	Lau-
=5	=5	=5	=5	=5	=5	=5	=5	=5	=5
!LO:TX:a:t=P:problem:mixed beam	!	!	!	!	!	!	!	!	!
8A\L	.	16cc#\LL	.	16ee\LL	.	8c#\	-da-	8ee\	-da-
.	.	16a\	.	16a\	.	.	.	.	.
8AA/J	.	16cc#\	.	16cc#\	.	8c#\	-te	8ee\	-te
.	.	16ee\JJ	.	16ee\JJ	.	.	.	.	.
!	!	!LO:TX:a:t=P:problem:mixed beam	!	!	!	!	!	!	!
8r	.	8aa\L	.	8aa\L	.	8r	.	8r	.
8D\	.	8a/J	.	8ff#\J	.	8A\	lau-	8ff#\	lau-
=6	=6	=6	=6	=6	=6	=6	=6	=6	=6
!LO:TX:a:t=P:problem:mixed beam	!	!	!	!	!	!	!	!	!
8A\L	.	16cc#\LL	.	16ee\LL	.	8c#\	-da-	8ee\	-da-
.	.	16a\	.	16a\	.	.	.	.	.
8AA/J	.	16cc#\	.	16cc#\	.	8c#\	-te	8ee\	-te
.	.	16ee\JJ	.	16ee\JJ	.	.	.	.	.
!	!	!LO:TX:a:t=P:problem:mixed beam	!	!LO:TX:a:t=P:problem:mixed beam	!	!	!	!	!
8r	.	8aa\L	.	8aa\L	.	8r	.	8r	.
8F#\	.	8a/J	.	8a/J	.	8A\	lau-	8a\	Lau-
=7	=7	=7	=7	=7	=7	=7	=7	=7	=7
8G\L	.	8b\L	.	8.b\L	.	8B\L	-da-	4b\	-da-
8F#\	.	8a\	.	.	.	8A\J	.	.	.
.	.	.	.	(32cc#\LL	.	.	.	.	.
.	.	.	.	32dd\JJJ)	.	.	.	.	.
8G\	.	8b\	.	8ee\L	.	8B\L	-te	4ee\	-te
8E\J	.	8g\J	.	8bb\J	.	8G\J	.	.	.
=8	=8	=8	=8	=8	=8	=8	=8	=8	=8
!	!	!	!	!LO:TX:a:t=P:problem:niejednoznaczny zapis ozdobnika [przyjęto tryl]:global	!	!	!	!	!
.	.	.	.	.	.	.	.	8qqdd/	.
8A\L	.	4e/	.	8.cc#t\L	.	4E/	no-	8cc#\L	no-
8G\	.	.	.	.	.	.	.	16b\L	.
.	.	.	.	32b\LL	.	.	.	16a\JJ	.
.	.	.	.	32a\JJJ	.	.	.	.	.
!	!	!LO:TX:a:t=P:problem:mixed beam	!	!	!	!LO:TX:a:t=P:problem:mixed beam	!	!	!
8F#\	.	8f#/L	.	8dd\L	.	8F#/L	-men	8dd\L	-men
8G\J	.	8ee\J	.	8gg\J	.	8e\J	.	8gg\J	.
=9	=9	=9	=9	=9	=9	=9	=9	=9	=9
!LO:TX:a:t=P:problem:mixed beam	!	!	!	!	!	!	!	!	!
8A\L	.	4dd\	.	4ff#\	.	4d\	Do-	4ff#\	Do-
8G\	.	.	.	.	.	.	.	.	.
!	!	!LO:TX:a:t=P:problem:niejednoznaczny zapis ozdobnika [przyjęto tryl]:global	!	!	!	!	!	!	!
8A\	.	4cc#t\	.	4eeT\	.	8.c#\	.	8.ee\	.
8AA/J	.	.	.	.	.	.	.	.	.
.	.	.	.	.	.	16c#\	-mi-	16ee\	-mi-
=10	=10	=10	=10	=10	=10	=10	=10	=10	=10
8D\L	.	8dd\L	.	8dd\L	.	8d\	-ni	8dd\	-ni
8d\	.	8ff#\	.	8aa\	.	8A\	sit	8ff#\	Sit
8d\	.	8ff#\	.	8aa\	.	8A\	no-	8ff#\	no-
8d\J	.	8ff#\J	.	8aa\J	.	8A\	-men	8ff#\	-men
!	!	!	!	!	!	!	!	!LO:LB:g=original	!
=11	=11	=11	=11	=11	=11	=11	=11	=11	=11
8.c#\L	.	8.ee\L	.	8.aa\L	.	8.c#\	Do-	8.ee\	Do-
16c#\Jk	.	16ee\Jk	.	16aa\Jk	.	16c#\	-mi-	16ee\	-mi-
4c#\	.	4ee\	.	4aa\	.	4c#\	-ni	4ee\	-ni
=12	=12	=12	=12	=12	=12	=12	=12	=12	=12
8B\L	.	8dd\L	.	8gg#X\L	.	8G#X/	be-	8dd\	be-
8B\	.	8dd\	.	8gg#\J	.	8G#/	-ne-	8dd\	-ne-
8E\	.	8b\	.	4gg#t\	.	4B\	-dic-	4dd\	-dic-
8E\J	.	8b\J	.	.	.	.	.	.	.
=13	=13	=13	=13	=13	=13	=13	=13	=13	=13
4A\	.	4cc#\	.	8aa\L	.	4A\	-tum	8cc#\	-tum
.	.	.	.	8cc#\	.	.	.	8cc#\L	ex
4r	.	4r	.	8ee\	.	4r	.	8ee\J	.
.	.	.	.	8ff#\J	.	.	.	8ff#\	hoc
=14	=14	=14	=14	=14	=14	=14	=14	=14	=14
8r	.	8r	.	8ggn\L	.	8r	.	8gg\	nunc
8AA/L	.	8cc#\L	.	8gg\J	.	8c#\	et	8gg\	et
8BB/	.	8dd\	.	4gg\	.	8d\L	us-	4gg\	us-
8C#/J	.	8ee\J	.	.	.	8e\J	.	.	.
!LO:LB:g=original	!	!	!	!	!	!LO:LB:g=original	!	!	!
=15	=15	=15	=15	=15	=15	=15	=15	=15	=15
!LO:TX:a:t=P:problem:mixed beam	!	!	!	!	!	!	!	!	!
8D\L	.	8a/L	.	8ff#\L	.	8A\	-que	8ff#\	-que
8G\	.	8b/	.	16ee\L	.	8B\	in	16ee\LL	in
.	.	.	.	16dd\JJ	.	.	.	16dd\JJ	.
8A\	.	8e/	.	4cc#\	.	8.E/	Sae-	8.cc#\	Sae-
8AA/J	.	8e/J	.	.	.	.	.	.	.
!	!	!	!	!	!	!LO:SIC:l:s=-cu-:v	!	!	!
.	.	.	.	.	.	16E/	-cun-	16cc#\	-cu-
=16	=16	=16	=16	=16	=16	=16	=16	=16	=16
!	!	!LO:TX:a:t=P:problem:mixed beam	!	!	!	!LO:SIC:l:s=-lum:v	!	!	!
4D\	.	16f#/LL	.	16dd\LL	.	4F#/	-dum	4dd\	-lum
.	.	16aa\	.	16aa\	.	.	.	.	.
.	.	16ff#\	.	16ff#\	.	.	.	.	.
.	.	16dd\JJ	.	16dd\JJ	.	.	.	.	.
8r	.	8a\L	.	8a\L	.	4r	.	4r	.
8C#/	.	8ee\J	.	8gg\J	.	.	.	.	.
!	!	!LO:LB:g=original	!	!LO:LB:g=original	!	!	!	!	!
=17	=17	=17	=17	=17	=17	=17	=17	=17	=17
!	!	!	!	!LO:TX:a:t=P:problem:mixed beam	!	!LO:N:vis=0	!	!LO:N:vis=00	!
4D\	.	16dd\LL	.	16ff#\LL	.	1r	.	0r	.
.	.	16a\	.	16a/	.	.	.	.	.
.	.	16f#\	.	16f#/	.	.	.	.	.
.	.	16d\JJ	.	16d/JJ	.	.	.	.	.
8r	.	8A/L	.	8A/L	.	.	.	.	.
8C#/	.	8e/J	.	8g/J	.	.	.	.	.
=18	=18	=18	=18	=18	=18	=18	=18	=18	=18
*	*	*	*	*Xtuplet	*	*	*	*	*
!LO:TX:a:t=P:problem:mixed beam	!	!	!	!	!	!	!	!	!
8D\L	.	8d/	.	24f#/LL	.	.	.	.	.
.	.	.	.	24g/	.	.	.	.	.
.	.	.	.	24a/JJ	.	.	.	.	.
8G\	.	4d/	.	24b/LL	.	.	.	.	.
.	.	.	.	24cc#/	.	.	.	.	.
.	.	.	.	24dd/JJ	.	.	.	.	.
8A\	.	.	.	8d/L	.	.	.	.	.
8AA/J	.	8c#/	.	8e/J	.	.	.	.	.
=19	=19	=19	=19	=19	=19	=19	=19	=19	=19
!	!	!	!	!	!	!LO:TX:a:t=Solo	!	!	!
4D\	.	4d/	.	4d/	.	8r	.	.	.
.	.	.	.	.	.	8d\	a	.	.
4r	.	4r	.	4r	.	8e\	So-	.	.
.	.	.	.	.	.	8g\	-lis	.	.
=20	=20	=20	=20	=20	=20	=20	=20	=20	=20
!	!	!LO:N:vis=00	!	!LO:N:vis=00	!	!	!	!	!
8r	.	0r	.	0r	.	8a\	or-	.	.
!	!LO:DY:a	!	!	!	!	!	!	!	!
8F#\L	p	.	.	.	.	8d\	-tu	.	.
8G\	.	.	.	.	.	8e\	uſ-	.	.
8B\J	.	.	.	.	.	8d\	-que	.	.
=21	=21	=21	=21	=21	=21	=21	=21	=21	=21
!LO:TX:a:t=P:problem:mixed beam	!	!	!	!	!	!	!	!LO:N:vis=00	!
8A\L	.	.	.	.	.	16c#\LL	ad	0r	.
.	.	.	.	.	.	16d\JJ	.	.	.
8AA/	.	.	.	.	.	16e\LL	oc-	.	.
.	.	.	.	.	.	16f#\JJ	.	.	.
8BB/	.	.	.	.	.	4g\	-ca-	.	.
8C#/J	.	.	.	.	.	.	.	.	.
=22	=22	=22	=22	=22	=22	=22	=22	=22	=22
8D\L	.	.	.	.	.	8f#\	-Sum	.	.
8D\	.	.	.	.	.	8f#\	lau-	.	.
8F#\	.	.	.	.	.	8d\	-da-	.	.
8D\J	.	.	.	.	.	16B\	-bi-	.	.
.	.	.	.	.	.	16A\	-le	.	.
=23	=23	=23	=23	=23	=23	=23	=23	=23	=23
!	!	!	!	!	!	!LO:N:vis=4.	!	!	!
8E\L	.	.	.	.	.	4G#X/	no-	.	.
8D\	.	.	.	.	.	.	.	.	.
8C#\	.	.	.	.	.	8A/L	-men	.	.
8D\J	.	.	.	.	.	8B/J	.	.	.
=24	=24	=24	=24	=24	=24	=24	=24	=24	=24
!LO:TX:a:t=P:problem:mixed beam	!	!	!	!	!	!	!	!	!
8E\L	.	2r	.	2r	.	4A\	Do-	.	.
8D\	.	.	.	.	.	.	.	.	.
8E\	.	.	.	.	.	8.B\	-mi-	.	.
8EE/J	.	.	.	.	.	.	.	.	.
!	!	!	!	!	!	!LO:TX:b:t=P:problem:tekst słowny błędnie "Dominini"	!	!	!
.	.	.	.	.	.	16B\	-ni-	.	.
=25	=25	=25	=25	=25	=25	=25	=25	=25	=25
4AA/	.	16r	.	16r	.	4A\	-ni	4r	.
.	.	16a\LL	.	16a\LL	.	.	.	.	.
.	.	16cc#\	.	16cc#\	.	.	.	.	.
.	.	16ee\JJ	.	16ee\JJ	.	.	.	.	.
*	*	*Xtuplet	*	*	*	*	*	*	*
!	!	!LO:TUP:a:problem:klamra łukowa bez numeru	!	!LO:TUP:a:problem:klamra łukowa bez numeru	!	!	!	!	!
8r	.	24aa\LL	.	24aa\LL	.	8r	.	8r	.
.	.	24gg#X\	.	24gg#X\	.	.	.	.	.
.	.	24ff#\JJ	.	24ff#\JJ	.	.	.	.	.
!	!LO:DY:a	!LO:TUP:a:problem:klamra łukowa bez numeru	!	!LO:TUP:a:problem:klamra łukowa bez numeru	!	!LO:TX:a:t=Tutt.	!	!	!
8A\	f	24ee\LL	.	24ee\LL	.	8c#\	Ex-	8ee\	Ex-
.	.	24dd\	.	24dd\	.	.	.	.	.
.	.	24cc#\JJ	.	24cc#\JJ	.	.	.	.	.
=26	=26	=26	=26	=26	=26	=26	=26	=26	=26
4D\	.	8dd\	.	8ff#\	.	8d\	-cel-	8ff#\	-cel-
.	.	4cc#\	.	4ee\	.	4c#\	.	4ee\	.
4E\	.	.	.	.	.	.	.	.	.
!	!	!	!	!	!	!LO:N:vis=4	!	!	!
.	.	8b\	.	8dd\	.	8B\	.	8dd\	.
=27	=27	=27	=27	=27	=27	=27	=27	=27	=27
4AA/	.	16a\LL	.	16cc#\LL	.	4A\	-sus	4cc#\	-sus
.	.	16a\	.	16a\	.	.	.	.	.
.	.	16cc#\	.	16cc#\	.	.	.	.	.
.	.	16ee\JJ	.	16ee\JJ	.	.	.	.	.
!	!	!LO:TUP:a:problem:klamra łukowa bez numeru	!	!LO:TUP:a:problem:klamra łukowa bez numeru	!	!	!	!	!
4r	.	24aa\LL	.	24aa\LL	.	4r	.	4r	.
.	.	24gg#X\	.	24gg#X\	.	.	.	.	.
.	.	24ff#\JJ	.	24ff#\JJ	.	.	.	.	.
!	!	!LO:TUP:a:problem:klamra łukowa bez numeru	!	!LO:TUP:a:problem:klamra łukowa bez numeru	!	!	!	!	!
.	.	24ee\LL	.	24ee\LL	.	.	.	.	.
.	.	24dd\	.	24dd\	.	.	.	.	.
.	.	24cc#\JJ	.	24cc#\JJ	.	.	.	.	.
!	!	!	!	!	!	!LO:LB:g=original	!	!	!
=28	=28	=28	=28	=28	=28	=28	=28	=28	=28
4D\	.	8f#/	.	8dd\	.	8f#\	Su-	8dd\	Su-
.	.	4e/	.	4cc#\	.	8e\	-per	8cc#\	-per
4E\	.	.	.	.	.	(8e\L	om-	8cc#\L	om-
.	.	8d/	.	8b\	.	8d\J)	.	8b\J	.
!	!	!	!	!	!	!	!	!LO:LB:g=original	!
=29	=29	=29	=29	=29	=29	=29	=29	=29	=29
!LO:TX:a:t=P:problem:mixed beam	!	!LO:TX:a:t=P:problem:mixed beam	!	!	!	!	!	!	!
8AA/L	.	8c#/L	.	8a\L	.	4c#\	-neſ	4a\	-neſ
8A\	.	8cc#\	.	8ee\	.	.	.	.	.
8A\	.	8cc#\	.	8ee\	.	8c#\	gen-	8ee\	om-
8A\J	.	8cc#\J	.	8ee\J	.	8c#\	-teſ	8ee\	-neſ
=30	=30	=30	=30	=30	=30	=30	=30	=30	=30
8G#X\L	.	8b\L	.	8ee\L	.	8B\	gen-	8ee\	gen-
8G#\	.	8b\	.	8ee\	.	8B\	-teſ	8ee\	-tes
8.F#\	.	8.a\	.	8.dd#X\	.	8A\	Do-	8.dd#X\	Do-
.	.	.	.	.	.	8A\	-mi-	.	.
16BB\Jk	.	16a\Jk	.	16dd#\Jk	.	.	.	16dd#\	-mi-
!LO:LB:g=original	!	!	!	!	!	!	!	!	!
=31	=31	=31	=31	=31	=31	=31	=31	=31	=31
!	!	!	!	!LO:TX:a:t=P:problem:mixed beam	!	!	!	!	!
8E\L	.	8g#X/L	.	8ee\L	.	8G#X\	-nuſ	8ee\	-nus
8E\	.	8e/J	.	8e/J	.	8B\	et	8ddn\	et
8G#X\	.	16b\LL	.	16ddn\LL	.	8B\	Su-	8dd\	Su-
.	.	16b\	.	16dd\	.	.	.	.	.
8B\J	.	16b\	.	16dd\	.	8B\	-per	8dd\	-per
.	.	16b\JJ	.	16dd\JJ	.	.	.	.	.
!	!	!	!	!LO:LB:g=original	!	!	!	!	!
=32	=32	=32	=32	=32	=32	=32	=32	=32	=32
!LO:SIC:s=8G#:v	!	!	!	!	!	!	!	!	!
8G\L	.	16b\LL	.	16dd\LL	.	4B\	Cae-	4dd\	ce-
.	.	16dd\	.	16bb\	.	.	.	.	.
8F#\	.	16dd\	.	16bb\	.	.	.	.	.
.	.	16dd\JJ	.	16bb\JJ	.	.	.	.	.
!LO:SIC:s=8G#:v	!	!	!	!	!	!	!	!	!
8G\	.	16dd\LL	.	16bb\LL	.	4B\	-los	4dd\	-los
.	.	16dd\	.	16bb\	.	.	.	.	.
8E\J	.	16dd\	.	16bb\	.	.	.	.	.
.	.	16dd\JJ	.	16bb\JJ	.	.	.	.	.
!	!	!LO:LB:g=original	!	!	!	!	!	!	!
=33	=33	=33	=33	=33	=33	=33	=33	=33	=33
!LO:TX:a:t=P:problem:mixed beam	!	!	!	!	!	!	!	!	!
8C#\L	.	16cc#\LL	.	16aa\LL	.	8A\	glo-	8cc#\	glo-
.	.	16ee\	.	16ee\	.	.	.	.	.
8D\	.	16ff#\	.	16ff#\	.	16B\	-ri-	16dd\	-ri-
.	.	16dd\JJ	.	16dd\JJ	.	16B\	-a	16dd\	-a
8E\	.	8cc#\L	.	8cc#\L	.	8A\L	e-	8cc#\L	e-
8EE/J	.	8b\J	.	8bT\J	.	8G#X\J	.	8b\J	.
=34	=34	=34	=34	=34	=34	=34	=34	=34	=34
4AA/	.	16a\LL	.	16a\LL	.	4A\	-juſ	4a\	-jus
.	.	16ee\	.	16ee\	.	.	.	.	.
.	.	16cc#\	.	16cc#\	.	.	.	.	.
.	.	16a\JJ	.	16a\JJ	.	.	.	.	.
!	!	!	!	!LO:TX:a:t=P:problem:mixed beam	!	!	!	!	!
8r	.	8e/L	.	8e/L	.	4r	.	4r	.
8G#X\	.	8b/J	.	8dd\J	.	.	.	.	.
=35	=35	=35	=35	=35	=35	=35	=35	=35	=35
!	!	!	!	!	!	!LO:N:vis=00	!	!LO:N:vis=0	!
4A\	.	16a\LL	.	16cc#\LL	.	0r	.	1r	.
.	.	16ee\	.	16ee\	.	.	.	.	.
.	.	16cc#\	.	16cc#\	.	.	.	.	.
.	.	16a\JJ	.	16a\JJ	.	.	.	.	.
!	!	!	!	!LO:TX:a:t=P:problem:mixed beam	!	!	!	!	!
8r	.	8e/L	.	8e/L	.	.	.	.	.
8G#X\	.	8b/J	.	8dd\J	.	.	.	.	.
=36	=36	=36	=36	=36	=36	=36	=36	=36	=36
!LO:TX:a:t=P:problem:mixed beam	!	!	!	!	!	!	!	!	!
8A\L	.	8a/	.	24cc#\LL	.	.	.	.	.
.	.	.	.	24dd\	.	.	.	.	.
.	.	.	.	24ee\JJ	.	.	.	.	.
8D\	.	4a/	.	24ff#\LL	.	.	.	.	.
.	.	.	.	24gg#X\	.	.	.	.	.
.	.	.	.	24aa\JJ	.	.	.	.	.
8E\	.	.	.	8a/L	.	.	.	.	.
8EE/J	.	8g#X/	.	8bT/J	.	.	.	.	.
=37	=37	=37	=37	=37	=37	=37	=37	=37	=37
!	!	!	!	!	!	!	!	!LO:TX:a:t=Solo	!
4AA/	.	4a/	.	4a/	.	.	.	8r	.
.	.	.	.	.	.	.	.	8a\	Quis
!	!LO:DY:a	!	!	!	!	!	!	!	!
8C#/L	p	4r	.	4r	.	.	.	8ee\	ſi-
8D/J	.	.	.	.	.	.	.	8ff#\	-cut
=38	=38	=38	=38	=38	=38	=38	=38	=38	=38
.	.	.	.	.	.	.	.	8qqff#/	.
!	!	!LO:N:vis=00	!	!LO:N:vis=00	!	!	!	!	!
8C#/L	.	0r	.	0r	.	.	.	8ee\	Do-
8AA/	.	.	.	.	.	.	.	16dd\	-mi-
.	.	.	.	.	.	.	.	16cc#\	-nus
.	.	.	.	.	.	.	.	8qqee/	.
8BB/	.	.	.	.	.	.	.	8dd\	De-
8E/J	.	.	.	.	.	.	.	16cc#\LL	-us
.	.	.	.	.	.	.	.	16b\JJ	.
=39	=39	=39	=39	=39	=39	=39	=39	=39	=39
!	!	!	!	!	!	!LO:N:vis=00	!	!	!
4AA/	.	.	.	.	.	0r	.	16cc#\LL	no-
.	.	.	.	.	.	.	.	16b\JJ	.
.	.	.	.	.	.	.	.	8a\	-ster
4A\	.	.	.	.	.	.	.	8cc#\	qui
.	.	.	.	.	.	.	.	8cc#\	in
!	!	!	!	!	!	!	!	!LO:LB:g=original	!
=40	=40	=40	=40	=40	=40	=40	=40	=40	=40
8G#X\L	.	.	.	.	.	.	.	16b\LL	al-
.	.	.	.	.	.	.	.	16dd#X\JJ	.
8E\	.	.	.	.	.	.	.	16ee\LL	-tis
.	.	.	.	.	.	.	.	16cc#\JJ	.
.	.	.	.	.	.	.	.	8qqb/	.
8F#\	.	.	.	.	.	.	.	8.a\	ha-
8BB\J	.	.	.	.	.	.	.	.	.
.	.	.	.	.	.	.	.	16a\	-bi-
=41	=41	=41	=41	=41	=41	=41	=41	=41	=41
!LO:TX:a:t=P:problem:mixed beam	!	!	!	!	!	!	!	!	!
8E\L	.	.	.	.	.	.	.	4g#X\	-tat
8EE/	.	.	.	.	.	.	.	.	.
8E\	.	.	.	.	.	.	.	8g#\	et
8F#\J	.	.	.	.	.	.	.	8a\	hu-
=42	=42	=42	=42	=42	=42	=42	=42	=42	=42
!	!	!LO:N:vis=0	!	!LO:N:vis=0	!	!	!	!	!
8G#X\L	.	1r	.	1r	.	.	.	8b\	-mi-
8A\	.	.	.	.	.	.	.	16cc#\	-li-
.	.	.	.	.	.	.	.	16cc#\	-a
.	.	.	.	.	.	.	.	8qqee/	.
8B\	.	.	.	.	.	.	.	8.dd\	reſ-
8E\J	.	.	.	.	.	.	.	.	.
.	.	.	.	.	.	.	.	16dd\	-pi-
=43	=43	=43	=43	=43	=43	=43	=43	=43	=43
!LO:TX:a:t=P:problem:mixed beam	!	!	!	!	!	!LO:N:vis=0	!	!	!
8A\L	.	.	.	.	.	1r	.	8cc#\	-cit
8BB/	.	.	.	.	.	.	.	8dd\	in
8C#/	.	.	.	.	.	.	.	8ee\	cae-
8D/J	.	.	.	.	.	.	.	8ff#\	-los
=44	=44	=44	=44	=44	=44	=44	=44	=44	=44
.	.	.	.	.	.	.	.	8qqa/	.
8E\L	.	2r	.	2r	.	.	.	8g#X\	et
8C#\	.	.	.	.	.	.	.	16a\LL	in
.	.	.	.	.	.	.	.	16b\JJ	.
!	!	!	!	!	!	!	!	!LO:TX:a:t=P:problem:niejednoznaczny zapis ozdobnika [przyjęto tryl]:global	!
8D\	.	.	.	.	.	.	.	4bT\	ter-
8E\J	.	.	.	.	.	.	.	.	.
!	!	!	!	!	!	!LO:LB:g=original	!	!	!
=45	=45	=45	=45	=45	=45	=45	=45	=45	=45
!	!LO:DY:a	!	!	!	!	!LO:TX:a:t=P:problem:3 skreślone takty	!	!LO:TX:a:t=Tutt	!
8AA/L	f	8r	.	16r	.	4r	.	4a\	-ra
.	.	.	.	16a\LL	.	.	.	.	.
8AA/	.	8cc#\L	.	16cc#\	.	.	.	.	.
.	.	.	.	16ee\JJ	.	.	.	.	.
8C#/	.	8ee\	.	4aaT\	.	8A\	Suſ-	8cc#\	Sus-
8D/J	.	8ff#\J	.	.	.	8A\	-ci-	8cc#\	-ci-
!LO:LB:g=original	!	!	!	!	!	!	!	!	!
=46	=46	=46	=46	=46	=46	=46	=46	=46	=46
!	!	!	!	!LO:TX:a:t=P:problem:mixed beam	!	!	!	!	!
8E\L	.	8b/L	.	16gg#X\LL	.	8G#X\	-tanſ	8b\	-tans
.	.	.	.	16e/	.	.	.	.	.
8E\	.	8g#X/	.	16g#X/	.	8B\	a	8dd\	a
.	.	.	.	16b/JJ	.	.	.	.	.
8F#\	.	8a/	.	4ddT\	.	4B\	ter-	4dd\	ter-
8G#X\J	.	8b/J	.	.	.	.	.	.	.
=47	=47	=47	=47	=47	=47	=47	=47	=47	=47
!	!	!LO:TX:a:t=P:problem:mixed beam	!	!	!	!	!	!	!
8A\L	.	8e/L	.	16cc#\LL	.	8A\	-ra	8cc#\	-ra
.	.	.	.	16dd\	.	.	.	.	.
8D\	.	8ff#\	.	16ff#\	.	8d\	a	8ff#\	a
.	.	.	.	16aa\JJ	.	.	.	.	.
8E\	.	8aa\	.	4ddd\	.	4d\	ter-	4gg\	ter-
8Gn\J	.	8bb\J	.	.	.	.	.	.	.
=48	=48	=48	=48	=48	=48	=48	=48	=48	=48
8A\L	.	8ee\L	.	16ccc#\LL	.	4c#\	-ra	4ee\	-ra
.	.	.	.	16a\	.	.	.	.	.
8A\	.	8cc#\	.	16cc#\	.	.	.	.	.
.	.	.	.	16ee\JJ	.	.	.	.	.
8B\	.	8dd\	.	4ggnT\	.	8e\	in-	8gg\	in-
8c#\J	.	8ee\J	.	.	.	8e\	-o-	8gg\	-o-
!	!	!	!	!LO:LB:g=original	!	!	!	!LO:LB:g=original	!
=49	=49	=49	=49	=49	=49	=49	=49	=49	=49
4d\	.	8dd\L	.	8ff#\L	.	4d\	-pem	4ff#\	-pem
.	.	16aa\L	.	16aa\L	.	.	.	.	.
.	.	16ff#\JJ	.	16ff#\JJ	.	.	.	.	.
4r	.	8dd\L	.	8dd\L	.	4r	.	8dd\	et
.	.	16aa\L	.	16aa\L	.	.	.	8dd\	des-
.	.	16ff#\JJ	.	16ff#\JJ	.	.	.	.	.
=50	=50	=50	=50	=50	=50	=50	=50	=50	=50
!	!	!LO:TX:a:t=P:problem:mixed beam	!	!	!	!	!	!	!
8r	.	8dd\L	.	8dd\L	.	8r	.	8dd\	-ter-
8D\L	.	8f#/	.	8ccn\	.	8F#/	des-	4cc#\	.
8E\	.	8g/	.	8cc\	.	8G/	-ter-	.	.
8F#\J	.	8a/J	.	8cc\J	.	8A/	-co-	8cc#\	-co-
=51	=51	=51	=51	=51	=51	=51	=51	=51	=51
!	!	!LO:TX:a:t=P:problem:mixed beam	!	!	!	!	!	!	!
4G\	.	8d/L	.	8b\L	.	4G/	-re	4b\	-re
.	.	16bb\L	.	16bb\L	.	.	.	.	.
.	.	16gg#X\JJ	.	16gg#X\JJ	.	.	.	.	.
4r	.	8ee\L	.	8ee\L	.	4r	.	4ee\	e-
.	.	16bb\L	.	16bb\L	.	.	.	.	.
.	.	16gg#X\JJ	.	16gg#X\JJ	.	.	.	.	.
=52	=52	=52	=52	=52	=52	=52	=52	=52	=52
!	!	!LO:TX:a:t=P:problem:mixed beam	!	!	!	!	!	!	!
8r	.	8ee\L	.	8ee\L	.	8r	.	8ee\	-ri-
8E\L	.	8g#X/	.	8dd\	.	8G#X\L	pau-	8dd\	-gens
8F#\	.	8a/	.	8dd\	.	8A\J	.	8dd\	pau-
8G#X\J	.	8b/J	.	8dd\J	.	8B\	-pe-	8dd\	-pe-
!	!	!LO:LB:g=original	!	!	!	!	!	!	!
=53	=53	=53	=53	=53	=53	=53	=53	=53	=53
!	!	!LO:TX:a:t=P:problem:mixed beam	!	!	!	!	!	!	!
8A\L	.	8e/L	.	8cc#\L	.	8A\	-rem	8cc#\	-rem
16E\L	.	8cc#\	.	8ee\	.	8c#\	e-	8ee\	e-
16C#\JJ	.	.	.	.	.	.	.	.	.
!	!	!	!	!	!	!LO:LB:g=original	!	!	!
8AA/L	.	8cc#\	.	8ee\	.	8c#\	-ri-	8ee\	-ri-
16E/L	.	8cc#\J	.	8ee\J	.	8c#\	-genſ	8ee\	-gens
16C#/JJ	.	.	.	.	.	.	.	.	.
=54	=54	=54	=54	=54	=54	=54	=54	=54	=54
!LO:TX:a:t=P:problem:mixed beam	!	!	!	!	!	!	!	!	!
8D\L	.	8dd\L	.	8ff#\L	.	8d\L	pau-	8ff#\L	pau-
8G\	.	8ee\	.	8gg\	.	8e\J	.	8gg\J	.
8A\	.	8dd\	.	8ff#\	.	8d\	.	8ff#\	.
8AA/J	.	8cc#\J	.	8ee\J	.	8c#\	-pe-	8ee\	-pe-
=55	=55	=55	=55	=55	=55	=55	=55	=55	=55
4D\	.	16dd\LL	.	16dd\LL	.	4d\	-rem	4dd\	-rem
.	.	16aa\	.	16aa\	.	.	.	.	.
.	.	16ff#\	.	16ff#\	.	.	.	.	.
.	.	16dd\JJ	.	16dd\JJ	.	.	.	.	.
!	!	!	!	!LO:TX:a:t=P:problem:mixed beam	!	!	!	!	!
8r	.	8a\L	.	8a\L	.	4r	.	4r	.
8C#\	.	8ee\J	.	8gg/J	.	.	.	.	.
=56	=56	=56	=56	=56	=56	=56	=56	=56	=56
!	!	!	!	!LO:TX:a:t=P:problem:mixed beam	!LO:N:vis=0	!	!	!LO:N:vis=0	!
4D\	.	16dd\LL	.	16ff#\LL	.	1r	.	1r	.
.	.	16a\JJ	.	16a/	.	.	.	.	.
.	.	16f#/LL	.	16f#/	.	.	.	.	.
.	.	16d/JJ	.	16d/JJ	.	.	.	.	.
8r	.	8A/L	.	8A/L	.	.	.	.	.
8C#\	.	8e/J	.	8g/J	.	.	.	.	.
=57	=57	=57	=57	=57	=57	=57	=57	=57	=57
!LO:TX:a:t=P:problem:mixed beam	!	!	!	!	!	!	!	!	!
8D\L	.	8d/	.	24f#/LL	.	.	.	.	.
.	.	.	.	24g/	.	.	.	.	.
.	.	.	.	24a/JJ	.	.	.	.	.
8G\	.	4d/	.	24b/LL	.	.	.	.	.
.	.	.	.	24cc#/	.	.	.	.	.
.	.	.	.	24dd/JJ	.	.	.	.	.
8A\	.	.	.	8d/L	.	.	.	.	.
!	!	!	!	!	!	!	!	!LO:TX:a:t=P:problem:4 skreślone takty	!
8AA/J	.	8c#/	.	8eT/J	.	.	.	.	.
!	!	!	!	!	!	!	!	!LO:PB:g=original	!
=58	=58	=58	=58	=58	=58	=58	=58	=58	=58
!	!	!	!	!	!	!LO:TX:a:t=Solo	!	!LO:TX:a:t=Solo	!
4D\	.	4d/	.	4d/	.	4r	.	4r	.
!	!LO:DY:a	!	!LO:DY:a	!	!LO:DY:a	!	!	!	!
8D\L	p	8f#/L	p	8a/L	p	4F#/	ut	4a\	ut
8D\J	.	8f#/J	.	8a/J	.	.	.	.	.
=59	=59	=59	=59	=59	=59	=59	=59	=59	=59
8D\L	.	8f#/L	.	8a/L	.	4F#/	col-	4a\	col-
8D\	.	8f#/	.	8a/	.	.	.	.	.
8AA\	.	8e/	.	8g/	.	4E/	-lo-	4g\	-lo-
8AA\J	.	8e/J	.	8g/J	.	.	.	.	.
=60	=60	=60	=60	=60	=60	=60	=60	=60	=60
16D\LL	.	4d/	.	4f#/	.	4D/	-cet	4f#/	-cet
16d\	.	.	.	.	.	.	.	.	.
16c#\	.	.	.	.	.	.	.	.	.
16B\JJ	.	.	.	.	.	.	.	.	.
16A\LL	.	4r	.	4r	.	4r	.	4r	.
16G\	.	.	.	.	.	.	.	.	.
16F#\	.	.	.	.	.	.	.	.	.
16E\JJ	.	.	.	.	.	.	.	.	.
!LO:LB:g=original	!	!	!	!	!	!	!	!	!
=61	=61	=61	=61	=61	=61	=61	=61	=61	=61
8D/L	.	8a/L	.	8ff#\L	.	(4A/	e-	(4ff#\	e-
8D/	.	8a/	.	8ff#\	.	.	.	.	.
8AA/	.	8g/	.	8ee\	.	4G/)	.	4ee\)	.
8AA/J	.	8g/J	.	8ee\J	.	.	.	.	.
=62	=62	=62	=62	=62	=62	=62	=62	=62	=62
4D/	.	4f#/	.	4dd\	.	4F#/	-um	4dd\	-um
8D/L	.	8a/L	.	8ff#\L	.	8A\	cum	8ff#\	cum
8D/J	.	8a/J	.	8ff#\J	.	8A\	prin-	8ff#\	prin-
=63	=63	=63	=63	=63	=63	=63	=63	=63	=63
!LO:TX:a:t=P:problem:mixed beam	!	!	!	!	!	!	!	!	!
8AA/L	.	8cc#\L	.	8ee\L	.	4c#\	-ci-	4ee\	-ci-
8AA/	.	8cc#\	.	8ee\	.	.	.	.	.
8E\	.	8b\	.	8dd\	.	4B\	-pi-	4dd\	-pi-
8E\J	.	8b\J	.	8dd\J	.	.	.	.	.
=64	=64	=64	=64	=64	=64	=64	=64	=64	=64
!LO:TX:a:t=P:problem:mixed beam	!	!	!	!	!	!	!	!	!
8AA/L	.	4a/	.	4cc#\	.	4A\	-buſ	4cc#\	-bus
8A\	.	.	.	.	.	.	.	.	.
8F#\	.	4r	.	4r	.	8F#/	cum	8a\	cum
8D\J	.	.	.	.	.	8F#/	prin-	8a\	prin-
=65	=65	=65	=65	=65	=65	=65	=65	=65	=65
!	!	!LO:N:vis=0	!	!LO:N:vis=0	!	!	!	!	!
4G\	.	1r	.	1r	.	8G/L	-ci-	8b\L	-ci-
.	.	.	.	.	.	8E/J	.	8cc#\J	.
8r	.	.	.	.	.	8F#/	-pi-	8dd\	-pi-
8G\	.	.	.	.	.	8B\	-buſ	8ee\	-bus
=66	=66	=66	=66	=66	=66	=66	=66	=66	=66
8A\L	.	.	.	.	.	8E/L	po-	8cc#\L	po-
8C#\	.	.	.	.	.	8G/J	.	8b\J	.
8D\	.	.	.	.	.	8F#/	-pu-	8a\	-pu-
8G\J	.	.	.	.	.	8E/	-li	8g\	-li
=67	=67	=67	=67	=67	=67	=67	=67	=67	=67
!LO:TX:a:t=P:problem:mixed beam	!	!	!	!	!	!	!	!	!
8A\L	.	2r	.	2r	.	4D/	Su-	4f#/	su-
8G\	.	.	.	.	.	.	.	.	.
8A\	.	.	.	.	.	4C#/	.	4eT/	.
8AA/J	.	.	.	.	.	.	.	.	.
!	!	!	!	!LO:LB:g=original	!	!	!	!	!
=68	=68	=68	=68	=68	=68	=68	=68	=68	=68
!	!LO:DY:a	!	!	!	!LO:DY:a	!	!	!	!
8D\L	f	8r	.	8r	f	8D/	-i	8d/	-i
!	!	!	!	!	!	!LO:TX:a:t=Tutti	!	!LO:TX:a:t=Tutti	!
8D\	.	8ff#\L	.	8ddd\L	.	8d\	qui	8ff#\	Qui
8F#\	.	8ff#\	.	8dd\	.	8d\	ha-	8ff#\	ha-
8E\J	.	8ff#\J	.	8dd\J	.	8d\	-bi-	8ff#\	-bi-
!	!	!	!	!	!	!LO:LB:g=original	!	!	!
=69	=69	=69	=69	=69	=69	=69	=69	=69	=69
!LO:TX:a:t=P:problem:mixed beam	!	!	!	!LO:TUP:a:problem:klamra łukowa bez numeru	!	!	!	!	!
8D\L	.	8ff#\L	.	24dd\LL	.	8d\	-ta-	8ff#\	-ta-
.	.	.	.	24ee\	.	.	.	.	.
.	.	.	.	24ff#\JJ	.	.	.	.	.
*	*	*tuplet	*	*	*	*	*	*	*
!	!	!LO:TUP:a:problem:klamra łukowa	!	!LO:TUP:a:problem:klamra łukowa bez numeru	!	!	!	!	!
8d\	.	24dd\L	.	24ff#\LL	.	8f#\	-re	8aa\	-re
.	.	24ee\	.	24gg\	.	.	.	.	.
.	.	24ff#\JJ	.	24aa\JJ	.	.	.	.	.
!	!	!	!	!	!	!	!	!LO:SIC:l:s=fa-:v	!
.	.	8qqff#/	.	8qqaa/	.	8qqf#/	.	8qqaa/	.
8A\	.	4ee\	.	4gg\	.	4e\	fa-	4gg\	fat-
8AA/J	.	.	.	.	.	.	.	.	.
!	!	!	!	!	!	!	!	!LO:LB:g=original	!
=70	=70	=70	=70	=70	=70	=70	=70	=70	=70
!	!	!LO:TX:a:t=P:problem:mixed beam	!	!LO:TX:a:t=P:problem:mixed beam	!	!	!	!	!
8D\L	.	8dd\L	.	8ff#\L	.	4d\	-cit	4ff#\	-cit
8D\	.	8f#/	.	8dd\	.	.	.	.	.
8F#\	.	8f#/	.	8d/	.	8F#/	Ste-	8dd\	Ste-
8E\J	.	8f#/J	.	8d/J	.	8F#/	-ri-	8dd\	-ri-
!	!	!LO:LB:g=original	!	!	!	!	!	!	!
=71	=71	=71	=71	=71	=71	=71	=71	=71	=71
!LO:TX:a:t=P:problem:mixed beam	!	!	!	!LO:TUP:b:problem:klamra łukowa bez numeru	!	!	!	!	!
8D\L	.	8f#/L	.	24d/LL	.	8F#/	-lem	8dd\	-lem
.	.	.	.	24e/	.	.	.	.	.
.	.	.	.	24f#/JJ	.	.	.	.	.
*	*	*Xtuplet	*	*	*	*	*	*	*
!	!	!LO:TUP:b:problem:klamra łukowa bez numeru	!	!LO:TUP:b:problem:klamra łukowa bez numeru	!	!	!	!	!
8d\	.	24d/L	.	24f#/LL	.	8A/	in	8ff#\	in
.	.	24e/	.	24g/	.	.	.	.	.
.	.	24f#/JJ	.	24a/JJ	.	.	.	.	.
.	.	8qqf#/	.	8qqa/	.	8qqA/	.	8qqff#/	.
8A\	.	4e/	.	4g/	.	4G/	do-	4ee\	do-
8AA/J	.	.	.	.	.	.	.	.	.
=72	=72	=72	=72	=72	=72	=72	=72	=72	=72
!	!	!	!	!LO:TX:a:t=P:problem:mixed beam	!	!	!	!	!
8D\L	.	8d/L	.	8f#/L	.	8F#/	-mo	8dd\	-mo
8D\	.	8f#/	.	8ddd\J	.	16d\	Ma-	16ff#\	Ma-
.	.	.	.	.	.	16d\	-trem	16ff#\	-trem
.	.	.	.	8qqgg/	.	.	.	.	.
8F#\	.	8a/	.	8ff#\L	.	8d\	fi-	8ff#\	fi-
8G\J	.	8b/J	.	16ee\L	.	8d\	-li-	8ff#\	-li-
.	.	.	.	16dd\JJ	.	.	.	.	.
=73	=73	=73	=73	=73	=73	=73	=73	=73	=73
8A\L	.	8e/L	.	8cc#\L	.	4c#\	-o-	4ee\	-o-
8G\	.	16d/L	.	16b\L	.	.	.	.	.
.	.	16c#/JJ	.	16a\JJ	.	.	.	.	.
!	!	!LO:TX:a:t=P:problem:mixed beam	!	!	!	!	!	!	!
8F#\	.	8f#/L	.	8dd\L	.	8d\	-rum	8ff#\	-rum
!	!	!	!	!	!	!	!	!LO:SIC:l:s=lea-:v	!
8B\J	.	8ee\J	.	8gg\J	.	8e\	le-	8gg\	te-
=74	=74	=74	=74	=74	=74	=74	=74	=74	=74
!LO:TX:a:t=P:problem:mixed beam	!	!	!	!	!	!	!	!	!
8A\L	.	4dd\	.	4ff#\	.	(4d\	-tam-	4ff#\	-tan-
8G\	.	.	.	.	.	.	.	.	.
8A\	.	4cc#t\	.	4eeT\	.	4c#\)	.	4eeT\	.
8AA/J	.	.	.	.	.	.	.	.	.
=75	=75	=75	=75	=75	=75	=75	=75	=75	=75
4D\	.	4dd\	.	4dd\	.	4d\	-tem	4dd\	-tem
8D\L	.	8a/L	.	8ff#\L	.	8A\	Glo-	8ff#\	Glo-
8D\J	.	8a/J	.	8ff#\J	.	16A\	-ri-	16ff#\	-ri-
.	.	.	.	.	.	16A\	-a	16ff#\	-a
=76	=76	=76	=76	=76	=76	=76	=76	=76	=76
4A\	.	4cc#\	.	4ee\	.	4c#\	Pa-	4ee\	Pa-
8A\L	.	8cc#\L	.	8ee\L	.	8c#\	-tri	8ee\	-tri
8A\J	.	8cc#\J	.	8ee\J	.	8c#\	et	8ee\	et
!LO:LB:g=original	!	!	!	!	!	!	!	!	!
=77	=77	=77	=77	=77	=77	=77	=77	=77	=77
!LO:TX:a:t=P:problem:brak taktu	!	!	!	!	!	!	!	!	!
2ryy	.	8dd\L	.	8.gg#X\L	.	4G#X\	fi-	4dd\	fi-
.	.	8dd\	.	.	.	.	.	.	.
.	.	.	.	(32aa\LL	.	.	.	.	.
.	.	.	.	32bb\JJJ)	.	.	.	.	.
.	.	8dd\	.	8.b\L	.	4B\	-li-	4dd\	-li-
.	.	8b\J	.	.	.	.	.	.	.
.	.	.	.	32cc#\LL	.	.	.	.	.
.	.	.	.	32dd\JJJ	.	.	.	.	.
=78	=78	=78	=78	=78	=78	=78	=78	=78	=78
!	!	!LO:TX:a:t=P:problem:mixed beam	!	!	!	!	!	!	!
8A\L	.	8e/L	.	16cc#\LL	.	8A\	-o	8cc#\	-o
.	.	.	.	16a\	.	.	.	.	.
8A\	.	8cc#\	.	16cc#\	.	8c#\	et	8ee\	et
.	.	.	.	16ee\JJ	.	.	.	.	.
8B\	.	8dd\	.	8aa\L	.	8d\	ſpi-	8ee\	Spi-
8c#\J	.	8ee\J	.	8ggn\J	.	8e\	-ri-	8gg\	-ri-
=79	=79	=79	=79	=79	=79	=79	=79	=79	=79
8d\L	.	4dd\	.	(32ff#\LLL	.	8d\	-tu-	8ff#\	-tu-
.	.	.	.	32ee\JJ)	.	.	.	.	.
.	.	.	.	8.dd\J	.	.	.	.	.
8F#\	.	.	.	.	.	8d\	-i	16dd\LL	-i
.	.	.	.	.	.	.	.	16cc#\JJ	.
8G\	.	4cc#t\	.	4eeT\	.	4c#\	ſan-	4eeT\	San-
8A\J	.	.	.	.	.	.	.	.	.
!	!	!	!	!	!	!LO:LB:g=original	!	!LO:LB:g=original	!
=80	=80	=80	=80	=80	=80	=80	=80	=80	=80
!	!	!	!	!	!	!LO:SIC:l:s=-nto:v	!	!	!
8D\L	.	8dd\L	.	16dd\LL	.	8d\	-to	8dd\	-cto
.	.	.	.	16dd\	.	.	.	.	.
8D\	.	8ff#\	.	16ff#\	.	16d\	Si-	16ff#\	si-
.	.	.	.	16aa\JJ	.	16d\	-cut	16ff#\	-cut
8F#\	.	8aa\	.	4ddd\	.	8d\	e-	8ff#\	e-
8G\J	.	8bb\J	.	.	.	8d\	-rat	8ff#\	-rat
=81	=81	=81	=81	=81	=81	=81	=81	=81	=81
!LO:TX:a:t=P:problem:mixed beam	!	!	!	!	!	!	!	!	!
8A\L	.	8ee\L	.	16ccc#\LL	.	8c#\	in	8ee\	in
.	.	.	.	16a\	.	.	.	.	.
8AA/	.	8cc#\	.	16cc#\	.	8e\	prin-	8gg\	prin-
.	.	.	.	16ee\JJ	.	.	.	.	.
8BB/	.	8dd\	.	4ggT\	.	8e\	-ci-	8gg\	-ci-
8C#/J	.	8ee\J	.	.	.	8e\	-pi-	8gg\	-pi-
!	!	!	!	!LO:LB:g=original	!	!	!	!	!
=82	=82	=82	=82	=82	=82	=82	=82	=82	=82
!	!	!LO:TX:a:t=P:problem:mixed beam	!	!LO:TX:a:t=P:problem:mixed beam	!	!	!	!	!
8D\L	.	8dd\L	.	16ff#\LL	.	4d\	-o	4ff#\	-o
.	.	.	.	16d/	.	.	.	.	.
8D\	.	8f#/	.	16f#/	.	.	.	.	.
.	.	.	.	16a/JJ	.	.	.	.	.
8F#\	.	8a/	.	4ddT\	.	4d\	et	4ff#\	et
8G\J	.	8b/J	.	.	.	.	.	.	.
=83	=83	=83	=83	=83	=83	=83	=83	=83	=83
!LO:TX:a:t=P:problem:mixed beam	!	!	!	!LO:TX:a:t=P:problem:mixed beam	!	!	!	!	!
8A\L	.	8e/L	.	16cc#\LL	.	8c#\	nunc	8ee\	nunc
.	.	.	.	16A/	.	.	.	.	.
8AA/	.	8c#/	.	16c#/	.	8c#\	et	8ee\	et
.	.	.	.	16e/JJ	.	.	.	.	.
8BB/	.	8d/	.	4gT/	.	4c#\	Sem-	4ee\	Sem-
8C#/J	.	8e/J	.	.	.	.	.	.	.
=84	=84	=84	=84	=84	=84	=84	=84	=84	=84
!	!	!LO:TX:a:t=P:problem:mixed beam	!	!	!	!	!	!	!
8D\L	.	8d/L	.	16f#/LL	.	8d\	-per	8dd\	-per
.	.	.	.	16d/	.	.	.	.	.
8D\	.	8ff#\	.	16f#/	.	16d\	et	16ff#\	et
.	.	.	.	16a/JJ	.	16d\	in	16ff#\	in
8F#\	.	8a/	.	16dd\LL	.	8d\	Sae-	8ff#\	Sae-
.	.	.	.	16ff#\	.	.	.	.	.
8D\J	.	8ff#\J	.	16aa\	.	16d\	-cu-	16ff#\	-cu-
.	.	.	.	16ddd\JJ	.	16d\	-la	16ff#\	-la
=85	=85	=85	=85	=85	=85	=85	=85	=85	=85
8A\L	.	8ee\L	.	8ccc#\L	.	8c#\	Sae-	8ee\	Sae-
8G\	.	16dd\L	.	16bb\L	.	8c#\	-cu-	8ee\	-cu-
.	.	16cc#\JJ	.	16aa\JJ	.	.	.	.	.
8F#\	.	8ff#\L	.	8ddd\L	.	8d\	-lo-	8ff#\	-lo-
8B\J	.	8ee\J	.	8gg\J	.	8e\	-rum	8gg\	-rum
=86	=86	=86	=86	=86	=86	=86	=86	=86	=86
!LO:TX:a:t=P:problem:mixed beam	!	!	!	!	!	!	!	!	!
8A\L	.	4dd\	.	4ff#\	.	4d\	a-	4ff#\	a-
8G\	.	.	.	.	.	.	.	.	.
8A\	.	4cc#t\	.	4eeT\	.	4c#t\	.	4eeT\	.
8AA/J	.	.	.	.	.	.	.	.	.
=87	=87	=87	=87	=87	=87	=87	=87	=87	=87
4D\	.	4dd\	.	4dd\	.	4d\	-men	4dd\	-men
4r	.	4r	.	4r	.	4r	.	4r	.
==	==	==	==	==	==	==	==	==	==
*-	*-	*-	*-	*-	*-	*-	*-	*-	*-
!!!system-decoration: [g1][g2]s5
!!!RDF**kern: > = above
!!!RDF**kern: < = below
!!!RDF**dynam: f = "for"
!!!RDF**dynam: p = "pia"
!!!ENC: Marta Lawrence
!!!END: 2020-09-09
!!!ENC: Andrzej Kubiczek
!!!END: 2020-05-15
